X: 466
P: Longways for as many as will
M: C|
L: 1/8
K: A
fg |\
a2 A4 e2 | c2 A4 fg | a2f2 b2a2 | g6 fg |\
a2 A4 e2 | c3d e2ba | g2e2 f2^d2 | e6 |]
d2d2 d2fg | e2 c4 Bc | (dc) (BA) (Bc)d2 | G6 fg |\
a2 A4 e2 | f3e fga2 | G2A2 B2G2 | A6 |]

